img/icons/this/caring/one.svg

<svg width="124" height="242" viewBox="0 0 124 242" fill="none" xmlns="http://www.w3.org/2000/svg">
<path opacity="0.4" d="M77.1562 215.53V69.6077C48.0523 90.4569 28.4699 100.873 18.3914 100.873C13.5684 100.873 9.30235 99.0874 5.59326 95.4992C1.85455 91.9275 0 87.7754 0 83.0759C0 77.6245 1.83677 73.6271 5.49846 71.0341C9.16607 68.4853 15.6362 65.1735 24.9208 61.1099C38.7855 55.0171 49.8772 48.6092 58.1664 41.8751C66.4465 35.1646 73.8595 27.5756 80.255 19.2622C86.6778 10.9137 90.8372 5.78291 92.7865 3.8644C94.7359 1.93484 98.4272 0.983887 103.801 0.983887C109.868 0.983887 114.733 3.16225 118.424 7.5466C122.062 11.9254 123.899 17.974 123.899 25.6701V209.282C123.899 230.773 116.054 241.515 100.365 241.515C93.3849 241.515 87.768 239.315 83.5256 234.936C79.2655 230.552 77.1562 224.077 77.1562 215.53Z" fill="#D2D2D2"/>
</svg>

<svg width="124" height="242" fill="none" xmlns="http://www.w3.org/2000/svg"><path opacity=".4" d="M77.156 215.53V69.608c-29.104 20.849-48.686 31.265-58.765 31.265-4.823 0-9.089-1.786-12.798-5.374C1.855 91.927 0 87.775 0 83.076c0-5.451 1.837-9.449 5.498-12.042 3.668-2.549 10.138-5.86 19.423-9.924 13.864-6.093 24.956-12.5 33.245-19.235 8.28-6.71 15.694-14.3 22.089-22.613 6.423-8.348 10.582-13.48 12.532-15.398 1.949-1.93 5.64-2.88 11.014-2.88 6.067 0 10.932 2.178 14.623 6.563 3.638 4.378 5.475 10.427 5.475 18.123v183.612c0 21.491-7.845 32.233-23.534 32.233-6.98 0-12.597-2.2-16.84-6.579-4.26-4.384-6.369-10.859-6.369-19.406z" fill="#D2D2D2"/></svg>
